icons/svg/power/generator_water2.svg

<?xml version="1.0" encoding="UTF-8" standalone="no"?>
<!-- Created with Inkscape (http://www.inkscape.org/) -->

<svg
   xmlns:dc="http://purl.org/dc/elements/1.1/"
   xmlns:cc="http://creativecommons.org/ns#"
   xmlns:rdf="http://www.w3.org/1999/02/22-rdf-syntax-ns#"
   xmlns:svg="http://www.w3.org/2000/svg"
   xmlns="http://www.w3.org/2000/svg"
   xmlns:sodipodi="http://sodipodi.sourceforge.net/DTD/sodipodi-0.dtd"
   xmlns:inkscape="http://www.inkscape.org/namespaces/inkscape"
   version="1.0"
   width="580"
   height="580"
   id="svg2"
   sodipodi:version="0.32"
   inkscape:version="0.48.4 r9939"
   sodipodi:docname="station_water2.svg"
   inkscape:output_extension="org.inkscape.output.svg.inkscape">
  <metadata
     id="metadata10">
    <rdf:RDF>
      <cc:Work
         rdf:about="">
        <dc:format>image/svg+xml</dc:format>
        <dc:type
           rdf:resource="http://purl.org/dc/dcmitype/StillImage" />
        <cc:license
           rdf:resource="http://web.resource.org/cc/PublicDomain" />
        <dc:language>en</dc:language>
        <dc:title />
      </cc:Work>
    </rdf:RDF>
  </metadata>
  <sodipodi:namedview
     inkscape:window-height="1004"
     inkscape:window-width="1920"
     inkscape:pageshadow="2"
     inkscape:pageopacity="0.0"
     guidetolerance="10.0"
     gridtolerance="10.0"
     objecttolerance="10.0"
     borderopacity="1.0"
     bordercolor="#666666"
     pagecolor="#ffffff"
     id="base"
     showgrid="false"
     inkscape:zoom="1"
     inkscape:cx="259.49758"
     inkscape:cy="388.60568"
     inkscape:window-x="1680"
     inkscape:window-y="0"
     inkscape:current-layer="svg2"
     inkscape:window-maximized="1" />
  <defs
     id="defs4">
    <inkscape:perspective
       sodipodi:type="inkscape:persp3d"
       inkscape:vp_x="0 : 290 : 1"
       inkscape:vp_y="0 : 1000 : 0"
       inkscape:vp_z="580 : 290 : 1"
       inkscape:persp3d-origin="290 : 193.33333 : 1"
       id="perspective12" />
    <style
       type="text/css"
       id="style6">
   
    .fil0 {fill:#EF7900}
   
  </style>
    <inkscape:perspective
       id="perspective6807"
       inkscape:persp3d-origin="29.116032 : 19.410688 : 1"
       inkscape:vp_z="58.232063 : 29.116032 : 1"
       inkscape:vp_y="0 : 1000 : 0"
       inkscape:vp_x="0 : 29.116032 : 1"
       sodipodi:type="inkscape:persp3d" />
    <inkscape:perspective
       id="perspective6954"
       inkscape:persp3d-origin="290 : 193.33333 : 1"
       inkscape:vp_z="580 : 290 : 1"
       inkscape:vp_y="0 : 1000 : 0"
       inkscape:vp_x="0 : 290 : 1"
       sodipodi:type="inkscape:persp3d" />
    <inkscape:perspective
       id="perspective2541"
       inkscape:persp3d-origin="240 : 160 : 1"
       inkscape:vp_z="480 : 240 : 1"
       inkscape:vp_y="0 : 1000 : 0"
       inkscape:vp_x="0 : 240 : 1"
       sodipodi:type="inkscape:persp3d" />
    <inkscape:perspective
       id="perspective2750"
       inkscape:persp3d-origin="215 : 143.33333 : 1"
       inkscape:vp_z="430 : 215 : 1"
       inkscape:vp_y="0 : 1000 : 0"
       inkscape:vp_x="0 : 215 : 1"
       sodipodi:type="inkscape:persp3d" />
    <inkscape:perspective
       id="perspective3730"
       inkscape:persp3d-origin="88.929146 : 101.19778 : 1"
       inkscape:vp_z="177.85829 : 151.79668 : 1"
       inkscape:vp_y="0 : 1000 : 0"
       inkscape:vp_x="0 : 151.79668 : 1"
       sodipodi:type="inkscape:persp3d" />
  </defs>
  <g
     id="g1327">
    <path
       d="M 66.275,1.768 C 24.94,1.768 1.704,23.139 1.704,66.804 L 1.704,516.927 C 1.704,557.771 22.598,579.156 63.896,579.156 L 515.92,579.156 C 557.227,579.156 578.149,558.84 578.149,516.927 L 578.149,66.804 C 578.149,24.203 557.227,1.768 514.627,1.768 C 514.624,1.768 66.133,1.625 66.275,1.768 z"
       style="fill:#111111;stroke:#eeeeee;stroke-width:3.40799999"
       id="path1329" />
  </g>
  <path
     style="fill:#ffffff;fill-opacity:1;stroke:none"
     d="m 288.59375,16.4375 c -35.95307,0 -65.125,29.140672 -65.125,65.09375 0,1.90303 0.3988,3.72141 0.5625,5.59375 -15.14244,7.30521 -28.94188,16.94187 -40.6875,28.6875 L 143.875,76.34375 c -25.41475,25.41475 -25.404,66.66877 0.0312,92.09375 1.34032,1.34031 2.8801,2.33418 4.3125,3.53125 -5.39194,15.388 -8.46875,31.8641 -8.46875,49.09375 l -55.78125,0 c 0,35.95307 29.14068,65.09375 65.09375,65.09375 1.90304,0 3.72141,-0.3988 5.59375,-0.5625 7.31544,15.13221 16.94187,28.94187 28.6875,40.6875 l -39.4375,39.4375 c 25.41475,25.43521 66.64775,25.44596 92.0625,0.0312 1.34031,-1.34031 2.33418,-2.90113 3.53125,-4.34375 15.38799,5.38171 31.86411,8.46875 49.09375,8.46875 l 0,55.8125 c 35.95307,0 65.09375,-29.17193 65.09375,-65.125 0,-1.90304 -0.3988,-3.69015 -0.5625,-5.5625 15.14245,-7.3052 28.94188,-16.94188 40.6875,-28.6875 l 39.46875,39.4375 c 25.41475,-25.41475 25.41475,-66.63752 0,-92.0625 -1.35054,-1.35054 -2.89034,-2.34496 -4.3125,-3.5625 5.3817,-15.38799 8.4375,-31.84309 8.4375,-49.0625 l 55.8125,0 c 0,-35.95307 -29.17193,-65.125 -65.125,-65.125 -1.90304,0 -3.69016,0.3988 -5.5625,0.5625 -7.31544,-15.13221 -16.97312,-28.94188 -28.71875,-40.6875 L 433.2812,76.3437 c -25.41475,-25.414748 -66.64775,-25.414748 -92.0625,0 -1.34031,1.34031 -2.32395,2.91136 -3.53125,4.34375 C 322.2995,75.3058 305.8234,72.25 288.59375,72.25 z m -2.55758,93.21875 52.54974,0 -52.41307,86.34147 66.42178,0 -117.50231,147.87728 51.59305,-112.37717 -61.46748,0 z"
     id="path3"
     inkscape:connector-curvature="0"
     sodipodi:nodetypes="cscccccccscccscccscccccccscccsccccccccccc" />
  <path
     style="fill:none;stroke:#ffffff;stroke-width:25.25426292;stroke-linecap:round;stroke-linejoin:round;stroke-miterlimit:10;stroke-opacity:1"
     inkscape:connector-curvature="0"
     stroke-miterlimit="10"
     d="m 540.76564,460.23099 c -27.37328,12.30046 -66.88647,16.30525 -92.6043,16.30525 -25.71784,0 -65.23102,-4.00479 -92.62102,-16.30525 -27.37328,12.30046 -66.88645,16.30525 -92.60429,16.30525 -25.71785,0 -65.23102,-4.00479 -92.6043,-16.30525 -27.37328,12.30046 -66.90318,16.30525 -92.62102,16.30525 -11.537909,0 -21.587599,-0.59118 -30.8681,-1.41121"
     id="path5"
     sodipodi:nodetypes="cscscsc" />
  <path
     style="fill:none;stroke:#ffffff;stroke-width:25.25426292;stroke-linecap:round;stroke-linejoin:round;stroke-miterlimit:10;stroke-opacity:1"
     inkscape:connector-curvature="0"
     stroke-miterlimit="10"
     d="m 540.76564,528.55543 c -27.37328,12.30045 -66.88647,16.30525 -92.6043,16.30525 -25.71784,0 -65.23102,-4.0048 -92.62102,-16.30525 -27.37328,12.30045 -66.88645,16.30525 -92.60429,16.30525 -25.71785,0 -65.23102,-4.0048 -92.6043,-16.30525 -27.37328,12.30045 -66.90318,16.30525 -92.62102,16.30525 -11.537909,0 -21.587599,-0.59119 -30.8681,-1.41122"
     id="path7"
     sodipodi:nodetypes="cscscsc" />
</svg>

<svg width="580" height="580" viewBox="0 0 580 580" fill="none" xmlns="http://www.w3.org/2000/svg">
<g clip-path="url(#clip0)">
<path d="M66.2751 1.76802C24.9401 1.76802 1.7041 23.139 1.7041 66.804V516.927C1.7041 557.771 22.5981 579.156 63.8961 579.156H515.92C557.227 579.156 578.149 558.84 578.149 516.927V66.804C578.149 24.203 557.227 1.76802 514.627 1.76802C514.624 1.76802 66.1331 1.62502 66.2751 1.76802Z" fill="#111111" stroke="#EEEEEE" stroke-width="3.408"/>
<path d="M288.594 16.4375C252.641 16.4375 223.469 45.5782 223.469 81.5312C223.469 83.4343 223.868 85.2527 224.031 87.125C208.889 94.4302 195.089 104.067 183.344 115.812L143.875 76.3438C118.46 101.758 118.471 143.013 143.906 168.438C145.247 169.778 146.786 170.772 148.219 171.969C142.827 187.357 139.75 203.833 139.75 221.062H83.9688C83.9688 257.016 113.109 286.156 149.063 286.156C150.966 286.156 152.784 285.757 154.656 285.594C161.972 300.726 171.598 314.536 183.344 326.281L143.906 365.719C169.321 391.154 210.554 391.165 235.969 365.75C237.309 364.41 238.303 362.849 239.5 361.406C254.888 366.788 271.364 369.875 288.594 369.875V425.687C324.547 425.687 353.688 396.516 353.688 360.562C353.688 358.659 353.289 356.872 353.125 355C368.267 347.695 382.067 338.058 393.812 326.312L433.281 365.75C458.696 340.335 458.696 299.112 433.281 273.687C431.931 272.337 430.391 271.342 428.969 270.125C434.35 254.737 437.406 238.282 437.406 221.062H493.219C493.219 185.109 464.047 155.937 428.094 155.937C426.191 155.937 424.404 156.336 422.531 156.5C415.216 141.368 405.558 127.558 393.812 115.812L433.281 76.3437C407.867 50.9289 366.633 50.9289 341.219 76.3437C339.878 77.684 338.895 79.2551 337.688 80.6874C322.3 75.3058 305.823 72.25 288.594 72.25V16.4375ZM286.036 109.656H338.586L286.173 195.998H352.595L235.092 343.875L286.685 231.498H225.218L286.036 109.656Z" fill="white"/>
<path d="M540.766 460.231C513.392 472.531 473.879 476.536 448.161 476.536C422.444 476.536 382.93 472.531 355.54 460.231C328.167 472.531 288.654 476.536 262.936 476.536C237.218 476.536 197.705 472.531 170.332 460.231C142.959 472.531 103.429 476.536 77.7109 476.536C66.173 476.536 56.1233 475.945 46.8428 475.125" stroke="white" stroke-width="25.2543" stroke-miterlimit="10" stroke-linecap="round" stroke-linejoin="round"/>
<path d="M540.766 528.555C513.392 540.856 473.879 544.861 448.161 544.861C422.444 544.861 382.93 540.856 355.54 528.555C328.167 540.856 288.654 544.861 262.936 544.861C237.218 544.861 197.705 540.856 170.332 528.555C142.959 540.856 103.429 544.861 77.7109 544.861C66.173 544.861 56.1233 544.269 46.8428 543.449" stroke="white" stroke-width="25.2543" stroke-miterlimit="10" stroke-linecap="round" stroke-linejoin="round"/>
</g>
<defs>
<clipPath id="clip0">
<path d="M0 0H580V580H0V0Z" fill="white"/>
</clipPath>
</defs>
</svg>
